static/site/images/special-projects/autoclave/svg/4-stroke.svg

<svg width="77" height="72" viewBox="0 0 77 72" fill="none" xmlns="http://www.w3.org/2000/svg">
<path d="M4.808 58.864L3.29517 57.5558L0.445 60.8519L4.80243 60.864L4.808 58.864ZM53.288 2.8V0.799995H52.3734L51.7752 1.49181L53.288 2.8ZM70.664 2.8L72.6349 3.13997L73.0385 0.799995H70.664V2.8ZM64.04 41.2L62.0691 40.86L61.6655 43.2H64.04V41.2ZM74.408 41.2L76.3769 41.5512L76.7963 39.2H74.408V41.2ZM71.24 58.96V60.96H72.9148L73.2089 59.3112L71.24 58.96ZM61.064 58.96V56.96H59.3818L59.0936 58.6173L61.064 58.96ZM59.144 70V72H60.8262L61.1144 70.3427L59.144 70ZM37.448 70L35.4748 69.674L35.0905 72H37.448V70ZM39.272 58.96L41.2453 59.286L41.6285 56.9666L39.2776 56.96L39.272 58.96ZM33.8 44.464L32.3366 43.1008L29.2037 46.464H33.8V44.464ZM44.456 44.464V46.464H46.1426L46.4273 44.8016L44.456 44.464ZM46.856 30.448L48.8273 30.7855L49.9577 24.184L45.3926 29.0848L46.856 30.448ZM6.32083 60.1722L54.8008 4.10818L51.7752 1.49181L3.29517 57.5558L6.32083 60.1722ZM53.288 4.8H70.664V0.799995H53.288V4.8ZM68.6931 2.46002L62.0691 40.86L66.0109 41.54L72.6349 3.13997L68.6931 2.46002ZM64.04 43.2H74.408V39.2H64.04V43.2ZM72.4391 40.8488L69.2711 58.6088L73.2089 59.3112L76.3769 41.5512L72.4391 40.8488ZM71.24 56.96H61.064V60.96H71.24V56.96ZM59.0936 58.6173L57.1736 69.6573L61.1144 70.3427L63.0344 59.3027L59.0936 58.6173ZM59.144 68H37.448V72H59.144V68ZM39.4213 70.326L41.2453 59.286L37.2988 58.634L35.4748 69.674L39.4213 70.326ZM39.2776 56.96L4.81357 56.864L4.80243 60.864L39.2664 60.96L39.2776 56.96ZM33.8 46.464H44.456V42.464H33.8V46.464ZM46.4273 44.8016L48.8273 30.7855L44.8847 30.1104L42.4847 44.1264L46.4273 44.8016ZM45.3926 29.0848L32.3366 43.1008L35.2634 45.8272L48.3194 31.8112L45.3926 29.0848Z" fill="#0073FF"/>
</svg>

<svg width="77" height="72" fill="none" xmlns="http://www.w3.org/2000/svg"><path d="M4.808 58.864l-1.513-1.308-2.85 3.296 4.357.012.006-2zM53.288 2.8v-2h-.915l-.598.692L53.288 2.8zm17.376 0l1.97.34.404-2.34h-2.374v2zM64.04 41.2l-1.97-.34-.404 2.34h2.374v-2zm10.368 0l1.969.351.42-2.351h-2.389v2zM71.24 58.96v2h1.675l.294-1.649-1.969-.351zm-10.176 0v-2h-1.682l-.288 1.657 1.97.343zM59.144 70v2h1.682l.288-1.657-1.97-.343zm-21.696 0l-1.973-.326L35.09 72h2.358v-2zm1.824-11.04l1.973.326.384-2.32-2.351-.006-.006 2zM33.8 44.464l-1.463-1.363-3.133 3.363H33.8v-2zm10.656 0v2h1.687l.284-1.662-1.971-.338zm2.4-14.016l1.971.337 1.13-6.601-4.564 4.9 1.463 1.364zM6.321 60.172L54.8 4.108l-3.026-2.616-48.48 56.064 3.026 2.616zM53.288 4.8h17.376v-4H53.288v4zm15.405-2.34l-6.624 38.4 3.942.68 6.624-38.4-3.942-.68zM64.04 43.2h10.368v-4H64.04v4zm8.4-2.351l-3.169 17.76 3.938.702 3.168-17.76-3.938-.702zm-1.2 16.111H61.064v4H71.24v-4zm-12.146 1.657l-1.92 11.04 3.94.686 1.92-11.04-3.94-.686zm.05 9.383H37.448v4h21.696v-4zm-19.723 2.326l1.824-11.04-3.946-.652-1.824 11.04 3.946.652zm-.143-13.366l-34.464-.096-.012 4 34.464.096.012-4zM33.8 46.464h10.656v-4H33.8v4zm12.627-1.662l2.4-14.017-3.942-.675-2.4 14.016 3.942.676zm-1.034-15.717L32.337 43.1l2.926 2.726L48.32 31.811l-2.926-2.726z" fill="#0073FF"/></svg>
